source/images/logo/javascript.svg

<svg fill="none" height="80" viewBox="0 0 81 80" width="81" xmlns="http://www.w3.org/2000/svg"><path d="m80.4975 0h-79.999941v80h79.999941z" fill="#f7df1e"/><path d="m54.2364 62.4107c1.6114 2.6311 3.7079 4.5651 7.4158 4.5651 3.115 0 5.1048-1.5568 5.1048-3.708 0-2.5777-2.0444-3.4908-5.473-4.9904l-1.8794-.8064c-5.4248-2.3111-9.0286-5.2063-9.0286-11.327 0-5.6381 4.2959-9.9301 11.0096-9.9301 4.7796 0 8.2158 1.6635 10.692 6.019l-5.8539 3.7587c-1.2889-2.3111-2.6794-3.2215-4.8381-3.2215-2.2019 0-3.5975 1.3968-3.5975 3.2215 0 2.2553 1.3968 3.1683 4.6222 4.5651l1.8794.8051c6.3873 2.7391 9.9936 5.5314 9.9936 11.8095 0 6.7683-5.3168 10.4762-12.4571 10.4762-6.9816 0-11.4921-3.327-13.6991-7.6876zm-26.5562.6514c1.1809 2.0953 2.2552 3.8667 4.8381 3.8667 2.4698 0 4.0279-.9664 4.0279-4.7238v-25.5619h7.5175v25.6635c0 7.7841-4.5639 11.327-11.2254 11.327-6.0191 0-9.5048-3.115-11.2775-6.8667z" fill="#000"/></svg>

<svg width="81" height="80" viewBox="0 0 81 80" fill="none" xmlns="http://www.w3.org/2000/svg">
<path d="M80.4975 0H0.497559V80H80.4975V0Z" fill="#F7DF1E"/>
<path d="M54.2364 62.4107C55.8478 65.0418 57.9443 66.9758 61.6522 66.9758C64.7672 66.9758 66.757 65.419 66.757 63.2678C66.757 60.6901 64.7126 59.777 61.284 58.2774L59.4046 57.471C53.9798 55.1599 50.376 52.2647 50.376 46.144C50.376 40.5059 54.6719 36.2139 61.3856 36.2139C66.1652 36.2139 69.6014 37.8774 72.0776 42.2329L66.2237 45.9916C64.9348 43.6805 63.5443 42.7701 61.3856 42.7701C59.1837 42.7701 57.7881 44.1669 57.7881 45.9916C57.7881 48.2469 59.1849 49.1599 62.4103 50.5567L64.2897 51.3618C70.677 54.1009 74.2833 56.8932 74.2833 63.1713C74.2833 69.9396 68.9665 73.6475 61.8262 73.6475C54.8446 73.6475 50.3341 70.3205 48.1271 65.9599L54.2364 62.4107ZM27.6802 63.0621C28.8611 65.1574 29.9354 66.9288 32.5183 66.9288C34.9881 66.9288 36.5462 65.9624 36.5462 62.205V36.6431H44.0637V62.3066C44.0637 70.0907 39.4998 73.6336 32.8383 73.6336C26.8192 73.6336 23.3335 70.5186 21.5608 66.7669L27.6802 63.0621Z" fill="black"/>
</svg>
